X:93
T:He's O'er the Hills That I Lo'e Well
C:arr. Carlo Minasi
M:6/8
L:1/8
B:Chappell's One Hundred Scotch Melodies
B:Arranged for the Concertina by Carlo Minasi
Q:"Moderato  "3/8=95
Z:Peter Dunk 2012
K:G
!p![DB,]|([DB,][EC][GB,]) [G2B,2] [GB,]|(BAG) (E2 G) &D3C3|\
([DB,][EC][GB,]) ([GB,]d>[BD])|(BAG) G2 E &[F2C2] B, B,2 x|
%
([DB,][EC][GB,]) [G2B,2] [GB,]|(BAG) [E2C2] [ec] &D2 z x3|\
([d2B2] [ec]) ([dB]BG)|([BD][AC][GB,]) [G2B,2] H||
%
B| (d2 e) (dBG)|(BAG) [E2C2] e|d2 e (dBG)| (BAG G2 B)|
%
[d2B2] [ec] ([dB]BG)|(BAG) E2 G|\
(DEG) (Gd>B)|[BD][AC][GB,] [G2B,2] !D.C.!||

